X:50
T: Templeglantine
Z: B.Black
R: slide
M: 12/8
L: 1/8
K: D
F2 A AFA Bcd A2 A | F2 A D2 F E3 EDE |\
F2 A AFA Bcd A2 A | F2 A E2 F DED D3 :|
f2 d B2 A Bcd A2 A | f2 e def e3 ede |\
f2 d B2 A Bcd A2 A | F2 A E2 F DED D3 :|
